X: 121
M: 6/8
L: 1/8
K: Gm
d2d d>cd | B2B B>AB | c>de d>cB | A2A A>Bc |\
d2d d>cd | B2B B>AB | c>de dcB | A2G G> :|
|: BB |\
d2d d>cd | B2B BAB | c>de d>cB | A2A A>Bc |\
d2d d>cd | B2B BAB | c>de dcB | A2G G>ba |
g>fg a>ba | g>fg a>ba | a>gf =efg | ^f2d d>Bc |\
d2d d>Bc | B2B B>AB | c>de d>cB | A2A A>Bc |
d2d d>cd | B2B B>AB | c>de d>cB | A2G G3 |]

